svgs/google_one.svg

<svg width="192" height="192" viewBox="0 0 192 192" fill="none" xmlns="http://www.w3.org/2000/svg">
<path fill-rule="evenodd" clip-rule="evenodd" d="M62.6274 81.2548C59.5032 78.1306 59.5032 73.0653 62.6274 69.9411L102.225 30.3431C105.35 27.2189 110.415 27.2189 113.539 30.3431C116.663 33.4673 116.663 38.5327 113.539 41.6569L73.9411 81.2548C70.8169 84.379 65.7516 84.379 62.6274 81.2548ZM82.4264 89.7401C74.6159 97.5506 61.9526 97.5506 54.1421 89.7401C46.3317 81.9296 46.3316 69.2663 54.1421 61.4558L93.7401 21.8579C97.547 18.0509 102.507 16.0996 107.496 16.0037C107.753 15.9988 108.01 15.9988 108.267 16.0037C110.82 16.0518 113.256 16.5784 115.489 17.4974C117.866 18.4736 120.094 19.9271 122.024 21.8579C123.944 23.7772 125.391 25.9896 126.367 28.351C127.344 30.7073 127.882 33.2908 127.882 36V156C127.882 167.046 118.928 176 107.882 176C96.8366 176 87.8823 167.046 87.8823 156V84.2843L82.4264 89.7401ZM99.8823 72.2843V156C99.8823 160.418 103.464 164 107.882 164C112.301 164 115.882 160.418 115.882 156V56.2843L99.8823 72.2843Z" fill="black"/>
</svg>

<svg width="192" height="192" fill="none" xmlns="http://www.w3.org/2000/svg"><path fill-rule="evenodd" clip-rule="evenodd" d="M62.627 81.255a8 8 0 0 1 0-11.314l39.598-39.598a8 8 0 0 1 11.314 11.314L73.941 81.255a8 8 0 0 1-11.314 0zm19.8 8.485c-7.811 7.81-20.474 7.81-28.285 0-7.81-7.81-7.81-20.474 0-28.284L93.74 21.858a19.934 19.934 0 0 1 14.527-5.854 19.924 19.924 0 0 1 13.757 5.854A19.928 19.928 0 0 1 127.882 36v120c0 11.046-8.954 20-20 20-11.045 0-20-8.954-20-20V84.284l-5.456 5.456zm17.455-17.456V156a8 8 0 0 0 16 0V56.284l-16 16z" fill="#000"/></svg>
